storage/app/icons/phosphoricons/light/battery-plus-light.svg

<svg xmlns="http://www.w3.org/2000/svg" fill="currentColor" viewBox="0 0 256 256"><path d="M150 128a6 6 0 0 1-6 6h-22v22a6 6 0 0 1-12 0v-22H88a6 6 0 0 1 0-12h22v-22a6 6 0 0 1 12 0v22h22a6 6 0 0 1 6 6m72-48v96a22 22 0 0 1-22 22H32a22 22 0 0 1-22-22V80a22 22 0 0 1 22-22h168a22 22 0 0 1 22 22m-12 0a10 10 0 0 0-10-10H32a10 10 0 0 0-10 10v96a10 10 0 0 0 10 10h168a10 10 0 0 0 10-10Zm38 10a6 6 0 0 0-6 6v64a6 6 0 0 0 12 0V96a6 6 0 0 0-6-6"/></svg>

<svg xmlns="http://www.w3.org/2000/svg" viewBox="0 0 256 256" fill="currentColor"><path d="M150,128a6,6,0,0,1-6,6H122v22a6,6,0,0,1-12,0V134H88a6,6,0,0,1,0-12h22V100a6,6,0,0,1,12,0v22h22A6,6,0,0,1,150,128Zm72-48v96a22,22,0,0,1-22,22H32a22,22,0,0,1-22-22V80A22,22,0,0,1,32,58H200A22,22,0,0,1,222,80Zm-12,0a10,10,0,0,0-10-10H32A10,10,0,0,0,22,80v96a10,10,0,0,0,10,10H200a10,10,0,0,0,10-10Zm38,10a6,6,0,0,0-6,6v64a6,6,0,0,0,12,0V96A6,6,0,0,0,248,90Z"/></svg>
